src/assets/svgs/names/Kim_Seung.svg

<svg width="592" height="136" xmlns="http://www.w3.org/2000/svg">
  <path
    d="m40.8 11.5 12.9-8.9.1-.1v-1l-12 3.8-10-3.8v1l7.7 8.8-24 48.6v-48l14-9.3.2-.1v-1L14.5 5.3 1.2 1.5v1l11.1 9.4V93L.6 102.4v.9l13.5-3.7 19.7 3.7v-.9l-18.3-9.5V62.8l5.6-11.4 31.9 58 .2.4.6-1-29.6-63.7 16.6-33.6zm34.1 22.3H60.4v2.8h11.5v56.2l-15.4 9.5-.1.1v.9l17-3.7 17.2 3.7h.3v-.9l-16-9.6v-59zM73.3 9.3c1.7 0 2.8-1.9 2.8-4.6 0-2.8-1.1-4.6-2.8-4.6-1.6 0-2.8 2-2.8 4.6 0 2.6 1.2 4.6 2.8 4.6zm91.3 48.4c0-15.6-5.2-25.7-13.3-25.7-6.7 0-12 6.5-14.3 17.6-1.6-11-6.3-17.6-12.8-17.6-6.5 0-11.3 6-13.8 16.9V33.8H96.8v2.9h10.6v56.2l-13.1 9.5-.1.1v1l14.7-3.8 12.4 3.8v-1l-10.9-9.6V52.4c3.7-13.1 7.7-15.8 13.1-15.8 6.7 0 10.9 9.6 10.9 25.2v31l-10.3 9.6v1l11.8-3.8 12.3 3.8v-1l-10.8-9.6V57.7c0-2-.1-4.1-.3-5.9 3.6-12.8 7.7-15.3 13.5-15.3 6.7 0 10.9 9.6 10.9 25.2v31l-10.3 9.6v1l11.8-3.8 15 3.7.3.1v-1l-13.8-9.6v-35h.1zm68.9-8.2c-.5-.4-1-.7-1.4-1l-.6-.5c-6.9-5-16.3-11.8-16.3-24.3 0-14.1 5-21.3 14.7-21.3 7.8 0 14 11.4 16.2 29.7.4 2.7.9 8.5.9 8.6v.2h1.9V.1h-1L246.4 16C242.9 8.1 236.8.1 229.8.1c-11.1 0-17.5 9-17.5 24.8 0 15 9.6 22.2 16.6 27.5l.9.6c.4.3.9.7 1.4 1 6.6 4.9 16.7 12.3 16.7 25.2 0 14.8-5.7 23.3-15.5 23.3-10.5 0-18.4-14-19.3-33.9-.2-3.7-.3-6.2-.3-7.2v-.2h-1.9v43.6h.9l1.6-12.3c4.1 6.2 9.5 12.3 17.8 12.3 9.6 0 19.8-7.1 19.8-27 0-15.7-10.6-23.3-17.5-28.3zm59.2 39.9c-4 7.7-8.1 11.3-12.8 11.3-10.5 0-18.1-16.6-18.1-39.5v-.6l30.3 2h.3v-.3c.4-11.3-2.5-21.7-7.6-26.9-2.2-2.3-4.7-3.5-7.2-3.5-11 0-18.1 14.7-18.1 37.4 0 24.2 9.4 35.3 18.2 35.3 8 0 12-6.9 15.8-14.6v-.1l-.4-1.1-.4.6zm-30.9-29.7c.5-14 5.8-24.1 12.8-24.1 6.3 0 11.7 7.1 13.9 18.2.2.6.3 2.5.3 3.6l-27 2.3zm72.4-25.9h-10.4v2.9h7.4v47.9c-3.6 13.1-7.7 15.8-13.1 15.8-5.9 0-9.7-9-9.7-22.8V33.8h-10.2v2.9h7.2v42.5c0 15.8 4.6 25.7 12 25.7 6.5 0 11.3-6 13.8-16.9v15.5l13.5-8.7.1-.1v-.9l-10.6 1.9V33.8zm58 23.9c0-15.6-5.2-25.7-13.3-25.7-6.5 0-11.3 6-13.8 16.9V33.8h-13.6v2.9h10.6v56.2l-13.1 9.5-.1.1v1l14.7-3.8 12.4 3.8v-1l-10.9-9.6V52.4c3.7-13.1 7.7-15.8 13.1-15.8 6.7 0 10.9 9.6 10.9 25.2v31l-10.3 9.6v1l11.8-3.8 15 3.7.3.1v-1l-13.8-9.6V57.7h.1zm41.5 41h-10.3l9.8-6.8c6.8-4.7 11-16 11-29.5 0-10.7-3.7-21-9.3-25.8h8.9v-2.9h-15.9c-10.4 0-17.4 12.4-17.4 30.9 0 18.1 8.8 28.9 17.4 28.9h.5l-13.6 8.8-.1.1v.9h17.7c6.6 0 10.7 5 10.7 13 0 8.7-6.6 16.9-13.6 16.9-5.4 0-10.5-2.2-15.4-6.8l-.4-.4v1.5l.1.1c.5.4 1 .9 1.5 1.3 3.5 3.2 7.2 6.5 15.2 6.5 9.3 0 16.1-8.7 16.1-20.6 0-10.4-6.7-16.1-12.9-16.1zm-4.4-7.2c-8.4 0-15.8-15.5-15.8-33.2 0-13 5-22.5 11.9-22.5 7.8 0 16.1 13.2 16.1 32.9 0 9.5-4.7 22.8-12.2 22.8zM453.9 59l23.9 2.2V56l-23.9 2v1zm79.2-47.1 14.3-9.4v-1l-15.8 3.8-14.3-3.8v1l12.7 9.4v35.5h-29.8V11.9l14.1-9.3.1-.1v-1l-15.8 3.8-14.4-3.8v1l12.8 9.4V93l-13.5 9.3-.1.1v.9l15.2-3.7 15.6 3.7v-.9l-14-9.4V49.4H530V93l-12.3 9.3-.1.1v.9l14.2-3.7 16 3.7v-.9L533.1 93V11.9zm53.8 30.9c-3.3-7-7.9-10.7-13.4-10.7-11.5 0-19.2 15-19.2 37.4 0 20.8 7.7 35.3 18.7 35.3 10.2 0 18.4-17.1 18.4-38.1.1-9.2-1.5-17.7-4.5-23.9zm2 31.4c0 13.1-5 26.7-13.3 26.7-11 0-18.9-16.2-18.9-38.6 0-18.4 7.2-26.8 13.9-26.8 11.1-.1 18.3 15.2 18.3 38.7z"
    fill="#FFF"
    fill-rule="nonzero"
  />
</svg>

<?xml version="1.0" encoding="UTF-8"?>
<svg width="592px" height="136px" viewBox="0 0 592 136" version="1.1" xmlns="http://www.w3.org/2000/svg" xmlns:xlink="http://www.w3.org/1999/xlink">
    <!-- Generator: Sketch 55.2 (78181) - https://sketchapp.com -->
    <title>Kim_Seung</title>
    <desc>Created with Sketch.</desc>
    <g id="Page-1" stroke="none" stroke-width="1" fill="none" fill-rule="evenodd">
        <g id="Artboard" transform="translate(-785.000000, -663.000000)" fill="#FFFFFF" fill-rule="nonzero">
            <g id="Kim_Seung" transform="translate(785.000000, 663.000000)">
                <path d="M40.8,11.5 L53.7,2.6 L53.8,2.5 L53.8,1.5 L41.8,5.3 L31.8,1.5 L31.8,2.5 L39.5,11.3 L15.5,59.9 L15.5,11.9 L29.5,2.6 L29.7,2.5 L29.7,1.5 L14.5,5.3 L1.2,1.5 L1.2,2.5 L12.3,11.9 L12.3,93 L0.6,102.4 L0.6,103.3 L14.1,99.6 L33.8,103.3 L33.8,102.4 L15.5,92.9 L15.5,62.8 L21.1,51.4 L53,109.4 L53.2,109.8 L53.8,108.8 L24.2,45.1 L40.8,11.5 Z M74.9,33.8 L60.4,33.8 L60.4,36.6 L71.9,36.6 L71.9,92.8 L56.5,102.3 L56.4,102.4 L56.4,103.3 L73.4,99.6 L90.6,103.3 L90.9,103.3 L90.9,102.4 L74.9,92.8 L74.9,33.8 Z M73.3,9.3 C75,9.3 76.1,7.4 76.1,4.7 C76.1,1.9 75,0.1 73.3,0.1 C71.7,0.1 70.5,2.1 70.5,4.7 C70.5,7.3 71.7,9.3 73.3,9.3 Z M164.6,57.7 C164.6,42.1 159.4,32 151.3,32 C144.6,32 139.3,38.5 137,49.6 C135.4,38.6 130.7,32 124.2,32 C117.7,32 112.9,38 110.4,48.9 L110.4,33.8 L96.8,33.8 L96.8,36.7 L107.4,36.7 L107.4,92.9 L94.3,102.4 L94.2,102.5 L94.2,103.5 L108.9,99.7 L121.3,103.5 L121.3,102.5 L110.4,92.9 L110.4,52.4 C114.1,39.3 118.1,36.6 123.5,36.6 C130.2,36.6 134.4,46.2 134.4,61.8 L134.4,92.8 L124.1,102.4 L124.1,103.4 L135.9,99.6 L148.2,103.4 L148.2,102.4 L137.4,92.8 L137.4,57.7 C137.4,55.7 137.3,53.6 137.1,51.8 C140.7,39 144.8,36.5 150.6,36.5 C157.3,36.5 161.5,46.1 161.5,61.7 L161.5,92.7 L151.2,102.3 L151.2,103.3 L163,99.5 L178,103.2 L178.3,103.3 L178.3,102.3 L164.5,92.7 L164.5,57.7 L164.6,57.7 Z M233.5,49.5 C233,49.1 232.5,48.8 232.1,48.5 L231.5,48 C224.6,43 215.2,36.2 215.2,23.7 C215.2,9.6 220.2,2.4 229.9,2.4 C237.7,2.4 243.9,13.8 246.1,32.1 C246.5,34.8 247,40.6 247,40.7 L247,40.9 L248.9,40.9 L248.9,0.1 L247.9,0.1 L246.4,16 C242.9,8.1 236.8,0.1 229.8,0.1 C218.7,0.1 212.3,9.1 212.3,24.9 C212.3,39.9 221.9,47.1 228.9,52.4 L229.8,53 C230.2,53.3 230.7,53.7 231.2,54 C237.8,58.9 247.9,66.3 247.9,79.2 C247.9,94 242.2,102.5 232.4,102.5 C221.9,102.5 214,88.5 213.1,68.6 C212.9,64.9 212.8,62.4 212.8,61.4 L212.8,61.2 L210.9,61.2 L210.9,104.8 L211.8,104.8 L213.4,92.5 C217.5,98.7 222.9,104.8 231.2,104.8 C240.8,104.8 251,97.7 251,77.8 C251,62.1 240.4,54.5 233.5,49.5 L233.5,49.5 Z M292.7,89.4 C288.7,97.1 284.6,100.7 279.9,100.7 C269.4,100.7 261.8,84.1 261.8,61.2 L261.8,60.6 L292.1,62.6 L292.4,62.6 L292.4,62.3 C292.8,51 289.9,40.6 284.8,35.4 C282.6,33.1 280.1,31.9 277.6,31.9 C266.6,31.9 259.5,46.6 259.5,69.3 C259.5,93.5 268.9,104.6 277.7,104.6 C285.7,104.6 289.7,97.7 293.5,90 L293.5,89.9 L293.1,88.8 L292.7,89.4 Z M261.8,59.7 C262.3,45.7 267.6,35.6 274.6,35.6 C280.9,35.6 286.3,42.7 288.5,53.8 C288.7,54.4 288.8,56.3 288.8,57.4 L261.8,59.7 L261.8,59.7 Z M334.2,33.8 L323.8,33.8 L323.8,36.7 L331.2,36.7 L331.2,84.6 C327.6,97.7 323.5,100.4 318.1,100.4 C312.2,100.4 308.4,91.4 308.4,77.6 L308.4,33.8 L298.2,33.8 L298.2,36.7 L305.4,36.7 L305.4,79.2 C305.4,95 310,104.9 317.4,104.9 C323.9,104.9 328.7,98.9 331.2,88 L331.2,103.5 L344.7,94.8 L344.8,94.7 L344.8,93.8 L334.2,95.7 L334.2,33.8 Z M392.2,57.7 C392.2,42.1 387,32 378.9,32 C372.4,32 367.6,38 365.1,48.9 L365.1,33.8 L351.5,33.8 L351.5,36.7 L362.1,36.7 L362.1,92.9 L349,102.4 L348.9,102.5 L348.9,103.5 L363.6,99.7 L376,103.5 L376,102.5 L365.1,92.9 L365.1,52.4 C368.8,39.3 372.8,36.6 378.2,36.6 C384.9,36.6 389.1,46.2 389.1,61.8 L389.1,92.8 L378.8,102.4 L378.8,103.4 L390.6,99.6 L405.6,103.3 L405.9,103.4 L405.9,102.4 L392.1,92.8 L392.1,57.7 L392.2,57.7 Z M433.7,98.7 L423.4,98.7 L433.2,91.9 C440,87.2 444.2,75.9 444.2,62.4 C444.2,51.7 440.5,41.4 434.9,36.6 L443.8,36.6 L443.8,33.7 L427.9,33.7 C417.5,33.7 410.5,46.1 410.5,64.6 C410.5,82.7 419.3,93.5 427.9,93.5 L428.4,93.5 L414.8,102.3 L414.7,102.4 L414.7,103.3 L432.4,103.3 C439,103.3 443.1,108.3 443.1,116.3 C443.1,125 436.5,133.2 429.5,133.2 C424.1,133.2 419,131 414.1,126.4 L413.7,126 L413.7,127.5 L413.8,127.6 C414.3,128 414.8,128.5 415.3,128.9 C418.8,132.1 422.5,135.4 430.5,135.4 C439.8,135.4 446.6,126.7 446.6,114.8 C446.6,104.4 439.9,98.7 433.7,98.7 L433.7,98.7 Z M429.3,91.5 C420.9,91.5 413.5,76 413.5,58.3 C413.5,45.3 418.5,35.8 425.4,35.8 C433.2,35.8 441.5,49 441.5,68.7 C441.5,78.2 436.8,91.5 429.3,91.5 L429.3,91.5 Z M453.9,59 L477.8,61.2 L477.8,56 L453.9,58 L453.9,59 Z M533.1,11.9 L547.4,2.5 L547.4,1.5 L531.6,5.3 L517.3,1.5 L517.3,2.5 L530,11.9 L530,47.4 L500.2,47.4 L500.2,11.9 L514.3,2.6 L514.4,2.5 L514.4,1.5 L498.6,5.3 L484.2,1.5 L484.2,2.5 L497,11.9 L497,93 L483.5,102.3 L483.4,102.4 L483.4,103.3 L498.6,99.6 L514.2,103.3 L514.2,102.4 L500.2,93 L500.2,49.4 L530,49.4 L530,93 L517.7,102.3 L517.6,102.4 L517.6,103.3 L531.8,99.6 L547.8,103.3 L547.8,102.4 L533.1,93 L533.1,11.9 Z M586.9,42.8 C583.6,35.8 579,32.1 573.5,32.1 C562,32.1 554.3,47.1 554.3,69.5 C554.3,90.3 562,104.8 573,104.8 C583.2,104.8 591.4,87.7 591.4,66.7 C591.5,57.5 589.9,49 586.9,42.8 Z M588.9,74.2 C588.9,87.3 583.9,100.9 575.6,100.9 C564.6,100.9 556.7,84.7 556.7,62.3 C556.7,43.9 563.9,35.4995127 570.6,35.4995127 C581.7,35.4 588.9,50.7 588.9,74.2 Z" id="Shape"></path>
            </g>
        </g>
    </g>
</svg>
